src/cmd/sc_hidecolumn.svg

<svg viewBox="0 0 16 16" xmlns="http://www.w3.org/2000/svg"><path d="m2 2v9.878906l1-.998047v-.880859h.8828125l1.0019531-1h-1.8847656v-2h2v-1h-2v-3h2 5.894531l1.001953-1h-.896484-6-2zm12 2.1113281-1 1.0019531v.8867188h-.884766l-1 1h1.884766v2h-2v1h2v3h-2-5.875l-.9980469 1h.8730469 6 3v-1z" fill="#232629"/><path d="m5 3v5.8847656l1-.9980468v-2.1679688l2.71875-2.71875h-1.4375l-1.28125 1.28125v-1.28125zm5 0v.8945312l.894531-.8945312zm1 4.1152344-1 1.0019531v.1640625l-4 4v-.158203l-.875.876953h1.59375l3.28125-3.28125v3.28125h1v-4.28125z" fill="#762572"/><path d="m13.3125 1.9999999-11.3144532 11.2949221.7148438.705078 11.2851564-11.3027345z" fill="#232629"/></svg>

<?xml version="1.0" encoding="UTF-8" standalone="no"?>
<svg
   xmlns:dc="http://purl.org/dc/elements/1.1/"
   xmlns:cc="http://creativecommons.org/ns#"
   xmlns:rdf="http://www.w3.org/1999/02/22-rdf-syntax-ns#"
   xmlns:svg="http://www.w3.org/2000/svg"
   xmlns="http://www.w3.org/2000/svg"
   xmlns:sodipodi="http://sodipodi.sourceforge.net/DTD/sodipodi-0.dtd"
   xmlns:inkscape="http://www.inkscape.org/namespaces/inkscape"
   viewBox="0 0 16 16"
   version="1.1"
   id="svg8"
   sodipodi:docname="sc_hidecolumn.svg"
   inkscape:version="0.92.4 (5da689c313, 2019-01-14)">
  <metadata
     id="metadata14">
    <rdf:RDF>
      <cc:Work
         rdf:about="">
        <dc:format>image/svg+xml</dc:format>
        <dc:type
           rdf:resource="http://purl.org/dc/dcmitype/StillImage" />
      </cc:Work>
    </rdf:RDF>
  </metadata>
  <defs
     id="defs12" />
  <sodipodi:namedview
     pagecolor="#ffffff"
     bordercolor="#666666"
     borderopacity="1"
     objecttolerance="10"
     gridtolerance="10"
     guidetolerance="10"
     inkscape:pageopacity="0"
     inkscape:pageshadow="2"
     inkscape:window-width="1920"
     inkscape:window-height="1011"
     id="namedview10"
     showgrid="true"
     inkscape:zoom="59"
     inkscape:cx="10.745042"
     inkscape:cy="5.254521"
     inkscape:window-x="1920"
     inkscape:window-y="32"
     inkscape:window-maximized="1"
     inkscape:current-layer="svg8">
    <inkscape:grid
       type="xygrid"
       id="grid821" />
  </sodipodi:namedview>
  <path
     d="m 2,4 v 7.878906 L 3,10.880859 V 10 H 3.8828125 L 4.8847656,9 H 3 V 7 H 5 V 6 H 3 V 4 C 3,3 4,3 5,3 h 5.894531 L 11.896484,2 H 11 5 C 3,2 2,2 2,4 Z M 14,4.1113281 13,5.1132812 V 6 h -0.884766 l -1,1 H 13 v 2 h -2 v 1 h 2 v 2 c 0,1 -1,1 -2,1 H 5.125 L 4.1269531,14 H 5 11 c 2,0 3,0 3,-2 z"
     id="path2"
     inkscape:connector-curvature="0"
     style="fill:#232629"
     sodipodi:nodetypes="cccccccccccccccccccccccccccccccccccc" />
  <path
     d="m5 3v5.8847656l1-.9980468v-2.1679688l2.71875-2.71875h-1.4375l-1.28125 1.28125v-1.28125zm5 0v.8945312l.894531-.8945312zm1 4.1152344-1 1.0019531v.1640625l-4 4v-.158203l-.875.876953h1.59375l3.28125-3.28125v3.28125h1v-4.28125z"
     fill="#762572"
     id="path4" />
  <path
     d="m13.3125 1.9999999-11.3144532 11.2949221.7148438.705078 11.2851564-11.3027345z"
     fill="#232629"
     id="path6" />
</svg>
